src/assets/spuig.svg

<svg width="36" height="36" viewBox="0 0 36 36" fill="none" xmlns="http://www.w3.org/2000/svg">
<path d="M26.3334 16.3333H31.3334C33.1834 16.3333 34.6667 14.8333 34.6667 13V6.33333C34.6667 4.48333 33.1667 3 31.3334 3H26.3334C24.4834 3 23 4.5 23 6.33333V8H13.0167V6.33333C13.0167 4.48333 11.5167 3 9.68337 3H4.66671C2.83337 3 1.33337 4.5 1.33337 6.33333V13C1.33337 14.85 2.83337 16.3333 4.66671 16.3333H9.66671C11.5167 16.3333 13 14.8333 13 13V11.3333H16.3334V23.0167C16.3334 25.7667 18.5667 28 21.3167 28H23V29.6667C23 31.5167 24.5 33 26.3334 33H31.3334C33.1834 33 34.6667 31.5 34.6667 29.6667V23C34.6667 21.15 33.1667 19.6667 31.3334 19.6667H26.3334C24.4834 19.6667 23 21.1667 23 23V24.6667H21.3167C20.4167 24.6667 19.6667 23.9167 19.6667 23.0167V11.3333H23V13C23 14.8333 24.5 16.3333 26.3334 16.3333Z" fill="url(#paint0_linear_2017_2)"/>
<path d="M10.6576 22.3424L8.96735 18.6219C8.59529 17.7927 7.40471 17.7927 7.03265 18.6219L5.34244 22.3424L1.62187 24.0326C0.792711 24.4153 0.792711 25.5953 1.62187 25.9674L5.34244 27.6576L7.03265 31.3781C7.41534 32.2073 8.59529 32.2073 8.96735 31.3781L10.6576 27.6576L14.3781 25.9674C15.2073 25.5847 15.2073 24.4047 14.3781 24.0326L10.6576 22.3424Z" fill="url(#paint1_linear_2017_2)"/>
<defs>
<linearGradient id="paint0_linear_2017_2" x1="35" y1="3" x2="1" y2="33" gradientUnits="userSpaceOnUse">
<stop offset="0.3" stop-color="#B468E6"/>
<stop offset="0.7" stop-color="#6ECEFA"/>
</linearGradient>
<linearGradient id="paint1_linear_2017_2" x1="35" y1="3" x2="1" y2="33" gradientUnits="userSpaceOnUse">
<stop offset="0.3" stop-color="#B468E6"/>
<stop offset="0.7" stop-color="#6ECEFA"/>
</linearGradient>
</defs>
</svg>

<svg xmlns="http://www.w3.org/2000/svg" width="36" height="36" fill="none" viewBox="0 0 36 36"><path fill="url(#a)" d="M26.3 16.3h5c1.9 0 3.4-1.5 3.4-3.3V6.3c0-1.8-1.5-3.3-3.4-3.3h-5A3.3 3.3 0 0 0 23 6.3V8H13V6.3C13 4.5 11.5 3 9.7 3h-5a3.3 3.3 0 0 0-3.4 3.3V13c0 1.8 1.5 3.3 3.4 3.3h5c1.8 0 3.3-1.5 3.3-3.3v-1.7h3.3V23a5 5 0 0 0 5 5H23v1.7c0 1.8 1.5 3.3 3.3 3.3h5c1.9 0 3.4-1.5 3.4-3.3V23c0-1.9-1.5-3.3-3.4-3.3h-5A3.3 3.3 0 0 0 23 23v1.7h-1.7q-1.5-.2-1.6-1.7V11.3H23V13c0 1.8 1.5 3.3 3.3 3.3"/><path fill="url(#b)" d="M10.7 22.3 9 18.6a1 1 0 0 0-2 0l-1.7 3.7L1.6 24a1 1 0 0 0 0 2l3.7 1.7L7 31.4a1 1 0 0 0 2 0l1.7-3.7 3.7-1.7a1 1 0 0 0 0-2z"/><defs><linearGradient id="a" x1="35" x2="1" y1="3" y2="33" gradientUnits="userSpaceOnUse"><stop offset=".3" stop-color="#b468e6"/><stop offset=".7" stop-color="#6ecefa"/></linearGradient><linearGradient id="b" x1="35" x2="1" y1="3" y2="33" gradientUnits="userSpaceOnUse"><stop offset=".3" stop-color="#b468e6"/><stop offset=".7" stop-color="#6ecefa"/></linearGradient></defs></svg>
